icon-themes/breeze_svg/cmd/sc_diaeffect.svg

<svg viewBox="0 0 16 16" xmlns="http://www.w3.org/2000/svg">/&gt;<path d="m2 2v9h4v2h-1v1h6v-1h-1v-2h4v-9zm1 1h10v7h-10zm4.5 1-.8339844 1.6660156-1.6660156.4179688 1.25 1.25-.4160156 1.6660156 1.6660156-.8339844 1.6660156.8339844-.4160156-1.6660156c.4166655-.416624.8333278-.8333011 1.25-1.25l-1.6660156-.4179688zm2.5 0v1h2v-1zm1 2v1h1v-1zm-1 2v1h2v-1zm-3 3h2v2h-2z" fill="#4d4d4d"/></svg>

<svg xmlns="http://www.w3.org/2000/svg" viewBox="0 0 16 16">
     />
 <path 
     style="fill:#4d4d4d" 
     d="M 2 2 L 2 11 L 6 11 L 6 13 L 5 13 L 5 14 L 11 14 L 11 13 L 10 13 L 10 11 L 14 11 L 14 2 L 2 2 z M 3 3 L 13 3 L 13 10 L 3 10 L 3 3 z M 7.5 4 L 6.6660156 5.6660156 L 5 6.0839844 L 6.25 7.3339844 L 5.8339844 9 L 7.5 8.1660156 L 9.1660156 9 L 8.75 7.3339844 C 9.1666655 6.9173604 9.5833278 6.5006833 10 6.0839844 L 8.3339844 5.6660156 L 7.5 4 z M 10 4 L 10 5 L 12 5 L 12 4 L 10 4 z M 11 6 L 11 7 L 12 7 L 12 6 L 11 6 z M 10 8 L 10 9 L 12 9 L 12 8 L 10 8 z M 7 11 L 9 11 L 9 13 L 7 13 L 7 11 z "
     />
 </svg>
